X: 24
T: Frost Is All Over, The
Z: Fritz Bogott
S: https://thesession.org/tunes/448#setting53516
R: jig
M: 6/8
L: 1/8
K: Dmaj
|:A|def edB|AFD E2D|FAA AFA|Bee edB|
def edB|AFD E2D|FAA AFA|Bdd d2:|
g|:fga agf|gab bag | fga agf | gfg e2g |
fga agf | gab bag | fed efg | fdd d2 g |
fga agf|gab bag | fga agf | gfg e2g |
fga agf | gab bag | fed efg | fed edB :|

%-------------------- TUNE SEPARATOR --------------------%

